X:18
T: Ritter und Magd
N: Q0055Q
O: Mitteleuropa, Schweiz
R: Ballade, Betrug, Schwangerschaft, Tod, Selbstmord, Herr und Magd
M: 6/8
L: 1/16
K: F
C2F4A2 | c3cc2d2f2d2 | c4
c2f2e2d2 | c4B2A4B2 | c4
c2d4d2 | d3ef2c2c2A2 | c4
A2G2GGd2 | c2B2A2G3AG2 | F4
c2d4d2 | d3ef2c2c2A2 | c4
A2G2GGd2 | c2B2A2G3AG2 | F4

@@@ Tune index: 894
